X:233
T:Swallowtail Jig, The
T:Dancing Master, The
R:jig
H:Also played in Ador
Z:id:hn-jig-233
M:6/8
K:Edor
GEE BEE|GEG BAG|FDD ADD|dcd AGF|
GEE BEE|GEG B2c|dcd AGF|1 GEE E2F:|2 GEE E3||
|:Bcd e2f|e2f edB|Bcd e2f|edB d3|
Bcd e2f|e2f edB|dcd AGF|1 GEE E3:|2 GEE E2F||
P:variations
|:GEE BEE|GEE BAG|FDD ADD|dcB AGF|
GEE BEE|GEE B2c|~d3 AGF|1 GEE E2F:|2 GEE E3||
|:Bcd e2f|e2f edB|Bcd e2f|edB ~d3|
Bcd e2f|e2f edB|~d3 AGF|1 GEE E3:|2 GEE E2F||

